app/dist/common/images/double-medical-tec.svg

<svg height="18" viewBox="0 0 18 18" width="18" xmlns="http://www.w3.org/2000/svg"><path d="m0 0h18v18h-18z" fill="#f0f3fa"/><path d="m6 14v-10h1v10zm3-10h-1v10h1a5 5 0 0 0 5-4.69h-1.01a4 4 0 0 1 -3.99 3.69v-3.5h3v-1h-3v-3.5a4 4 0 0 1 3.99 3.69h1a5 5 0 0 0 -4.97-4.69z" fill="#1a2659"/></svg>

<!-- by TradingView --><svg width="18" height="18" viewBox="0 0 18 18" xmlns="http://www.w3.org/2000/svg"><path fill="#F0F3FA" d="M0 0h18v18H0z"/><path fill="#1A2659" d="M6 14V4h1v10zM9 4H8v10h1a5 5 0 0 0 5-4.69h-1.01A4 4 0 0 1 9 13V9.5h3v-1H9V5a4 4 0 0 1 3.99 3.69h1A5 5 0 0 0 9.02 4Z"/></svg>
